raw/symbols/lusd.svg

<svg width="42" height="42" viewBox="0 0 42 42" fill="none" xmlns="http://www.w3.org/2000/svg">
<g clip-path="url(#clip0_8672_368935)">
<path d="M0 0H21C32.598 0 42 9.40202 42 21C42 32.598 32.598 42 21 42C9.40202 42 0 32.598 0 21V0Z" fill="#F3F3F3"/>
<rect width="26" height="42" fill="#2EB6EA"/>
<path d="M21 0H42V42H21L27 27.5L21 21L16 14L21 0Z" fill="#745DDF"/>
<path d="M25.0802 27.596C25.1319 26.6461 24.798 25.7146 24.1504 25.0026C23.245 24.1927 22.1685 23.5857 20.9966 23.2241C19.6884 22.7545 18.4083 22.214 17.1622 21.605C16.1584 21.1156 15.2286 20.4941 14.3988 19.7578C13.6337 19.0677 13.0223 18.2318 12.6025 17.302C12.1492 16.239 11.93 15.0951 11.9591 13.9443C11.922 12.9287 12.0984 11.9164 12.4777 10.9696C12.857 10.0228 13.431 9.16159 14.1646 8.43879C15.7517 6.95606 17.1318 6.3 18.3422 5.93594V0H24.3558V5.98303C25.9518 6.3 27.5187 7.2584 28.9406 8.91328C29.5409 9.67464 30.0166 10.5128 30.3581 11.398L25.5318 14.28C25.1118 13.44 24.652 12.4563 24.0723 11.6552C23.745 11.2695 23.3307 10.9623 22.8619 10.7575C22.393 10.5528 21.882 10.4559 21.3685 10.4744C20.8925 10.4439 20.4152 10.5103 19.967 10.6694C19.5188 10.8284 19.1095 11.0765 18.7651 11.398C18.4465 11.7435 18.2012 12.1471 18.0436 12.5853C17.8859 13.0236 17.8189 13.488 17.8465 13.9516C17.825 14.3931 17.8931 14.8343 18.0469 15.2501C18.2007 15.6659 18.4371 16.0481 18.7428 16.3748C19.7215 17.2061 20.8589 17.8412 22.09 18.2438C23.4621 18.7695 24.8009 19.3742 26.0992 20.0548C27.0719 20.5649 27.9648 21.2077 28.751 21.9636C29.4605 22.6571 30.0217 23.4807 30.4023 24.3868C30.8023 25.3971 30.9968 26.4735 30.975 27.5561C31.0164 28.5655 30.8458 29.5726 30.4736 30.5155C30.1014 31.4585 29.5355 32.3175 28.8104 33.0399C27.1873 34.5218 26.6078 34.86 24.3558 35.7924V42H18.3414V36.3828C15.4365 35.28 14.8482 34.368 13.1381 32.6451C11.9501 31.2962 11.2594 29.0346 11 27.3L16.712 25.62C16.712 26.88 17.0636 28.7206 17.8948 29.7475C18.319 30.1819 18.836 30.5203 19.4092 30.7388C19.9825 30.9572 20.598 31.0503 21.2123 31.0116C22.2445 31.0677 23.2598 30.7373 24.05 30.0879C24.3986 29.7709 24.6723 29.3838 24.8521 28.9535C25.0319 28.5232 25.1135 28.06 25.0913 27.596" fill="#F3F3F3"/>
</g>
<defs>
<clipPath id="clip0_8672_368935">
<path d="M0 0H21C32.598 0 42 9.40202 42 21C42 32.598 32.598 42 21 42C9.40202 42 0 32.598 0 21V0Z" fill="white"/>
</clipPath>
</defs>
</svg>

<svg xmlns="http://www.w3.org/2000/svg" width="42" height="42" fill="none"><g clip-path="url(#a)"><path fill="#F3F3F3" d="M0 0h21c11.598 0 21 9.402 21 21s-9.402 21-21 21S0 32.598 0 21V0Z"/><path fill="#2EB6EA" d="M0 0h26v42H0z"/><path fill="#745DDF" d="M21 0h21v42H21l6-14.5-6-6.5-5-7 5-14Z"/><path fill="#F3F3F3" d="M25.08 27.596a3.564 3.564 0 0 0-.93-2.593 8.479 8.479 0 0 0-3.153-1.779 37.876 37.876 0 0 1-3.835-1.619 12.253 12.253 0 0 1-2.763-1.847 7.422 7.422 0 0 1-1.796-2.456 8.038 8.038 0 0 1-.644-3.358 7.28 7.28 0 0 1 .519-2.974 7.437 7.437 0 0 1 1.687-2.531c1.587-1.483 2.967-2.139 4.177-2.503V0h6.014v5.983c1.596.317 3.163 1.275 4.585 2.93.6.762 1.076 1.6 1.417 2.485l-4.826 2.882c-.42-.84-.88-1.824-1.46-2.625a3.34 3.34 0 0 0-1.21-.897 3.426 3.426 0 0 0-1.493-.284 3.519 3.519 0 0 0-1.402.195 3.452 3.452 0 0 0-1.202.729 3.5 3.5 0 0 0-.721 1.187 3.432 3.432 0 0 0-.198 1.367c-.021.441.047.882.2 1.298.155.416.391.798.697 1.125a9.943 9.943 0 0 0 3.347 1.869c1.372.526 2.71 1.13 4.01 1.81.972.51 1.865 1.154 2.651 1.91a7.394 7.394 0 0 1 1.651 2.423 8.16 8.16 0 0 1 .573 3.17 7.248 7.248 0 0 1-.501 2.959 7.4 7.4 0 0 1-1.664 2.524c-1.623 1.482-2.202 1.82-4.454 2.752V42H18.34v-5.617c-2.905-1.103-3.493-2.015-5.203-3.738C11.95 31.296 11.26 29.035 11 27.3l5.712-1.68c0 1.26.352 3.1 1.183 4.127.424.435.941.773 1.514.992a4.307 4.307 0 0 0 1.803.273 4.12 4.12 0 0 0 2.838-.924c.349-.317.622-.704.802-1.135.18-.43.261-.893.24-1.357"/></g><defs><clipPath id="a"><path fill="#fff" d="M0 0h21c11.598 0 21 9.402 21 21s-9.402 21-21 21S0 32.598 0 21V0Z"/></clipPath></defs></svg>
